X:2672
L:1/8
M:4/4
K:C
 .abc ||[M:6/8][K:D] (3:2:1TB | AFD DFD | DFD (TB2 A) | Bcd AFA | BEE E2 (d/B/) | AFD DFD | 
 DFD (TB2 A) | Bcd AFA | FDD D2 :| g | fef d2 e | fga (TB2 A) | Bcd AFA | BEE E2 g | fef d2 e | 
 fga (TB2 A) | Bcd AFA | FDD D2 g | fef d2 e | fga (TB2 A) | Bcd AFA | BEE E2 g | fga efg | 
 fea (TB2 A) | Bcd (TF2 E) | FDD D2 ||

